X:1
T:Title
%%score ( 1 2 ) { 3 | 4 }
L:1/8
Q:1/4=100
M:4/4
K:Ab
V:1 treble nm="Grand Piano, Soprano"
V:2 treble 
V:3 bass nm="Choir Pad, I Will Sing His Praises"
V:4 bass 
V:1
 [Ec][DB] [CA]2 [CA]2 [CA][DF] | [CE][DF] [EA]2 [EA]2 [DF][CE]- | [CE][EA] [Ac]2 [Ac]2 [EA]2 | %3
w: By~Joseph~S.~Young,~1922 * * * * *|||
 [FA][EG] [DF]2 [=DB]2 [EB]2 | [Ec][DB] [CA]2 [CA]2 [CA][DF] | [CE][DF] [EA]2 [EA]2 [DF][CE]- | %6
w: |||
 [CE][EA] [Ac]2 [Ac]2 [Ae]2 | AB [Ac]2 B-[EB] [EA]2 | [Ec][DB] [CA]2 [CA]2 [DF][CE]- | %9
w: |||
 [CE][CA] [Ec]2 [Ec]2 [DB][CA]- | [CA][CE] [EA]2 [EA]2 [EA]2 | .A2 z2 z4 | %12
w: |||
 [EA][Ec] [Ae]2 [Ae]2 [Ae][Ac]- | [Ac][Ae] [Ac]2 [Ac]2 [Ac][EA]- | [EA][EA] [Ac]2 [Ac]2 [Ae]2 | %15
w: |||
 AB [Ac]2 B-[EB] [EA]2- | [EA]6 z2 |] %17
w: ||
V:2
 x8 | x8 | x8 | x8 | x8 | x8 | x8 | z4 .G2 z2 | x8 | x8 | x8 | E-[EB] [Ec]2 [EB][FA] [GB]2 | x8 | %13
 x8 | x8 | z4 .G2 z2 | x8 |] %17
V:3
 A,A, E,2 E,2 A,2 | A,2 C2 C2 A,A,- | A,[K:treble]C E2 E2 C2 | C[K:bass]B, A,2 A,2 G,2 | %4
 A,A, E,2 E,2 A,2 | A,2 C2 C2 A,A,- | A,[K:treble]C E2 E2 C2 | CF E2 D2 C2 | A,A, E,2 E,2 A,A,- | %9
 A,E, A,2 A,2 E,E,- | E,A,[K:treble] C2 C2 C2 | A,G, A,2 B,=D E2 | CA, C2 C2 CE- | EC E2 E2 EC- | %14
 CC E2 E2 C2 | CF E2 D2 C2- | C6 z2 |] %17
V:4
 A,,A,, A,,2 A,,2 A,,2 | A,,2 A,,2 A,,2 A,,A,,- | A,,A, A,2 A,2 A,2 | F,C, D,2 B,,2 E,2 | %4
 A,,A,, A,,2 A,,2 A,,2 | A,,2 A,,2 A,,2 A,,A,,- | A,,A, A,2 A,2 A,2 | F,D, E,2 E,2 A,,2 | %8
 A,,A,, A,,2 A,,2 A,,A,,- | A,,A,, A,,2 A,,2 A,,A,,- | A,,A,, A,,2 A,,2 A,,2 | C,E, z2 G,F, E,2 | %12
 .A,2 A,2 A,2 A,A,- | A,A, A,2 A,2 A,A,- | A,A, A,2 A,2 A,2 | F,D, E,2 E,2 A,,2- | A,,6 z2 |] %17

